static/img/kroki/00ae22ec95ec8a9861a0d0cb807f1942.svg

<?xml version="1.0" encoding="us-ascii" standalone="no"?><svg xmlns="http://www.w3.org/2000/svg" xmlns:xlink="http://www.w3.org/1999/xlink" contentStyleType="text/css" height="651px" preserveAspectRatio="none" style="width:437px;height:651px;" version="1.1" viewBox="0 0 437 651" width="437px" zoomAndPan="magnify"><defs/><g><!--class resource--><g id="elem_resource"><rect codeLine="22" fill="#3D176E" height="310.7578" id="resource" rx="2.5" ry="2.5" style="stroke:#000D19;stroke-width:0.5;" width="227" x="7" y="7"/><ellipse cx="75.75" cy="26.8945" fill="#ADD1B2" rx="11" ry="11" style="stroke:#181818;stroke-width:1.0;"/><path d="M78.7188,32.5352 Q78.1406,32.832 77.5,32.9727 Q76.8594,33.1289 76.1563,33.1289 Q73.6563,33.1289 72.3281,31.4883 Q71.0156,29.832 71.0156,26.707 Q71.0156,23.582 72.3281,21.9258 Q73.6563,20.2695 76.1563,20.2695 Q76.8594,20.2695 77.5,20.4258 Q78.1563,20.582 78.7188,20.8789 L78.7188,23.5977 Q78.0938,23.0195 77.5,22.7539 Q76.9063,22.4727 76.2813,22.4727 Q74.9375,22.4727 74.25,23.5508 Q73.5625,24.6133 73.5625,26.707 Q73.5625,28.8008 74.25,29.8789 Q74.9375,30.9414 76.2813,30.9414 Q76.9063,30.9414 77.5,30.6758 Q78.0938,30.3945 78.7188,29.8164 L78.7188,32.5352 Z " fill="#000000"/><text fill="#D9B8FF" font-family="Helvetica" font-size="17" lengthAdjust="spacing" textLength="71" x="101.25" y="32.7798">resource</text><line style="stroke:#000D19;stroke-width:0.5;" x1="8" x2="233" y1="46.7891" y2="46.7891"/><text fill="#D9B8FF" font-family="sans-serif" font-size="14" font-weight="bold" lengthAdjust="spacing" textLength="29" x="18" y="68.7842">age</text><text fill="#D9B8FF" font-family="sans-serif" font-size="14" lengthAdjust="spacing" textLength="66" x="47" y="68.7842">: duration</text><text fill="#D9B8FF" font-family="sans-serif" font-size="14" font-weight="bold" lengthAdjust="spacing" textLength="43" x="18" y="95.0811">atime</text><text fill="#D9B8FF" font-family="sans-serif" font-size="14" lengthAdjust="spacing" textLength="70" x="61" y="95.0811">: datetime</text><text fill="#D9B8FF" font-family="sans-serif" font-size="14" font-weight="bold" lengthAdjust="spacing" textLength="43" x="18" y="121.3779">ctime</text><text fill="#D9B8FF" font-family="sans-serif" font-size="14" lengthAdjust="spacing" textLength="70" x="61" y="121.3779">: datetime</text><text fill="#D9B8FF" font-family="sans-serif" font-size="14" font-weight="bold" lengthAdjust="spacing" textLength="14" x="18" y="147.6748">id</text><text fill="#D9B8FF" font-family="sans-serif" font-size="14" lengthAdjust="spacing" textLength="48" x="32" y="147.6748">: string</text><text fill="#D9B8FF" font-family="sans-serif" font-size="14" font-weight="bold" lengthAdjust="spacing" textLength="33" x="18" y="173.9717">kind</text><text fill="#D9B8FF" font-family="sans-serif" font-size="14" lengthAdjust="spacing" textLength="48" x="51" y="173.9717">: string</text><text fill="#D9B8FF" font-family="sans-serif" font-size="14" font-weight="bold" lengthAdjust="spacing" textLength="90" x="18" y="200.2686">last_access</text><text fill="#D9B8FF" font-family="sans-serif" font-size="14" lengthAdjust="spacing" textLength="66" x="108" y="200.2686">: duration</text><text fill="#D9B8FF" font-family="sans-serif" font-size="14" font-weight="bold" lengthAdjust="spacing" textLength="90" x="18" y="226.5654">last_update</text><text fill="#D9B8FF" font-family="sans-serif" font-size="14" lengthAdjust="spacing" textLength="66" x="108" y="226.5654">: duration</text><text fill="#D9B8FF" font-family="sans-serif" font-size="14" font-weight="bold" lengthAdjust="spacing" textLength="48" x="18" y="252.8623">mtime</text><text fill="#D9B8FF" font-family="sans-serif" font-size="14" lengthAdjust="spacing" textLength="70" x="66" y="252.8623">: datetime</text><text fill="#D9B8FF" font-family="sans-serif" font-size="14" font-weight="bold" lengthAdjust="spacing" textLength="43" x="18" y="279.1592">name</text><text fill="#D9B8FF" font-family="sans-serif" font-size="14" lengthAdjust="spacing" textLength="48" x="61" y="279.1592">: string</text><text fill="#D9B8FF" font-family="sans-serif" font-size="14" font-weight="bold" lengthAdjust="spacing" textLength="34" x="18" y="305.4561">tags</text><text fill="#D9B8FF" font-family="sans-serif" font-size="14" lengthAdjust="spacing" textLength="171" x="52" y="305.4561">: dictionary[string, string]</text></g><!--class scarf_package--><g id="elem_scarf_package"><rect codeLine="34" fill="#3D176E" height="205.5703" id="scarf_package" rx="2.5" ry="2.5" style="stroke:#000D19;stroke-width:0.5;" width="208" x="130.5" y="438.76"/><ellipse cx="168" cy="458.6545" fill="#ADD1B2" rx="11" ry="11" style="stroke:#181818;stroke-width:1.0;"/><path d="M170.9688,464.2952 Q170.3906,464.592 169.75,464.7327 Q169.1094,464.8889 168.4063,464.8889 Q165.9063,464.8889 164.5781,463.2483 Q163.2656,461.592 163.2656,458.467 Q163.2656,455.342 164.5781,453.6858 Q165.9063,452.0295 168.4063,452.0295 Q169.1094,452.0295 169.75,452.1858 Q170.4063,452.342 170.9688,452.6389 L170.9688,455.3577 Q170.3438,454.7795 169.75,454.5139 Q169.1563,454.2327 168.5313,454.2327 Q167.1875,454.2327 166.5,455.3108 Q165.8125,456.3733 165.8125,458.467 Q165.8125,460.5608 166.5,461.6389 Q167.1875,462.7014 168.5313,462.7014 Q169.1563,462.7014 169.75,462.4358 Q170.3438,462.1545 170.9688,461.5764 L170.9688,464.2952 Z " fill="#000000"/><text fill="#D9B8FF" font-family="Helvetica" font-size="17" lengthAdjust="spacing" textLength="116" x="192" y="464.5398">scarf_package</text><line style="stroke:#000D19;stroke-width:0.5;" x1="131.5" x2="337.5" y1="478.5491" y2="478.5491"/><text fill="#D9B8FF" font-family="sans-serif" font-size="14" font-weight="bold" lengthAdjust="spacing" textLength="92" x="141.5" y="500.5442">library_type</text><text fill="#D9B8FF" font-family="sans-serif" font-size="14" lengthAdjust="spacing" textLength="48" x="233.5" y="500.5442">: string</text><text fill="#D9B8FF" font-family="sans-serif" font-size="14" font-weight="bold" lengthAdjust="spacing" textLength="130" x="141.5" y="526.8411">long_description</text><text fill="#D9B8FF" font-family="sans-serif" font-size="14" lengthAdjust="spacing" textLength="48" x="271.5" y="526.8411">: string</text><text fill="#D9B8FF" font-family="sans-serif" font-size="14" font-weight="bold" lengthAdjust="spacing" textLength="51" x="141.5" y="553.1379">owner</text><text fill="#D9B8FF" font-family="sans-serif" font-size="14" lengthAdjust="spacing" textLength="48" x="192.5" y="553.1379">: string</text><text fill="#D9B8FF" font-family="sans-serif" font-size="14" font-weight="bold" lengthAdjust="spacing" textLength="80" x="141.5" y="579.4348">pull_count</text><text fill="#D9B8FF" font-family="sans-serif" font-size="14" lengthAdjust="spacing" textLength="44" x="221.5" y="579.4348">: int64</text><text fill="#D9B8FF" font-family="sans-serif" font-size="14" font-weight="bold" lengthAdjust="spacing" textLength="138" x="141.5" y="605.7317">short_description</text><text fill="#D9B8FF" font-family="sans-serif" font-size="14" lengthAdjust="spacing" textLength="48" x="279.5" y="605.7317">: string</text><text fill="#D9B8FF" font-family="sans-serif" font-size="14" font-weight="bold" lengthAdjust="spacing" textLength="63" x="141.5" y="632.0286">website</text><text fill="#D9B8FF" font-family="sans-serif" font-size="14" lengthAdjust="spacing" textLength="48" x="204.5" y="632.0286">: string</text></g><!--class scarf_resource--><g id="elem_scarf_resource"><rect codeLine="42" fill="#3D176E" height="39.7891" id="scarf_resource" rx="2.5" ry="2.5" style="stroke:#000D19;stroke-width:0.5;" width="161" x="269" y="142.49"/><ellipse cx="284" cy="162.3845" fill="#ADD1B2" rx="11" ry="11" style="stroke:#181818;stroke-width:1.0;"/><path d="M286.9688,168.0252 Q286.3906,168.322 285.75,168.4627 Q285.1094,168.6189 284.4063,168.6189 Q281.9063,168.6189 280.5781,166.9783 Q279.2656,165.322 279.2656,162.197 Q279.2656,159.072 280.5781,157.4158 Q281.9063,155.7595 284.4063,155.7595 Q285.1094,155.7595 285.75,155.9158 Q286.4063,156.072 286.9688,156.3689 L286.9688,159.0877 Q286.3438,158.5095 285.75,158.2439 Q285.1563,157.9627 284.5313,157.9627 Q283.1875,157.9627 282.5,159.0408 Q281.8125,160.1033 281.8125,162.197 Q281.8125,164.2908 282.5,165.3689 Q283.1875,166.4314 284.5313,166.4314 Q285.1563,166.4314 285.75,166.1658 Q286.3438,165.8845 286.9688,165.3064 L286.9688,168.0252 Z " fill="#000000"/><text fill="#D9B8FF" font-family="Helvetica" font-size="17" lengthAdjust="spacing" textLength="119" x="303" y="168.2698">scarf_resource</text></g><!--reverse link resource to scarf_package--><g id="link_resource_scarf_package"><path codeLine="44" d="M172.4881,335.3801 C184.7481,375.9401 192.45,401.43 203.64,438.46 " fill="none" id="resource-backto-scarf_package" style="stroke:#FFAF37;stroke-width:2.0;"/><polygon fill="none" points="167.28,318.15,166.7447,337.1161,178.2315,333.644,167.28,318.15" style="stroke:#FFAF37;stroke-width:2.0;"/></g><!--reverse link scarf_resource to scarf_package--><g id="link_scarf_resource_scarf_package"><path codeLine="45" d="M338.3889,199.817 C324.2189,246.277 292.55,350.15 265.56,438.66 " fill="none" id="scarf_resource-backto-scarf_package" style="stroke:#FFAF37;stroke-width:2.0;"/><polygon fill="none" points="343.64,182.6,332.6499,198.0667,344.1279,201.5674,343.64,182.6" style="stroke:#FFAF37;stroke-width:2.0;"/></g><!--SRC=[XP9DJ-Cm48Rl-HMMk5LKQlagHLoW4e8BMi7ULgjeOazIguaTZITRbO__ldPJAYTfuHQ_xvEPTyPUQeK2gvetei8gGtA9MsbJ0q4bxeZiUc5BI-8apo4_d_ND1sluH-0PAXIFMFv3rXBwnE-bbYk3pecpoBe7kIh8DaQrvPd0E6-XuOXQbE3S7JFfh66CmgXvTftdVR9VzEHSJMTNEC0iAQGTCfbCr7JUHtvizUtSU-9Llw6Onajxjeo3c8CMM-hRb868GWu6_VAFPlm5IcbJYCj8UsapaK7gwAzBK7OTw1nA5xTnZ8IMDpKk1bFX_5hbiuFmqp5OXiq9GcSRaYZUaz482XoDReHg25XR4nJMLQi1O_ZscZoWQHK4vr-FAVpHv-WAlXUd8AL_cxqEMwUfGwsUKnteOw2LzeKPYhQYbk4teCsVrZlTCN-JpzseJWBbQUtNuUVSpblgZFmVQTXJDwurHQhGIT9rADinxTfVMaUfcx9CfLyn1raRlhhmgbjQugDLrfWvpN7RRixeOZwJ_U7sOpmUToT9Ulm1v3y0]--></g></svg>

<svg xmlns="http://www.w3.org/2000/svg" width="437" height="651" viewBox="0 0 437 651"><rect width="227" height="310.758" x="7" y="7" fill="#3D176E" rx="2.5" ry="2.5" style="stroke:#000d19;stroke-width:.5"/><circle cx="75.75" cy="26.895" r="11" fill="#ADD1B2" style="stroke:#181818;stroke-width:1"/><path d="M78.719 32.535q-.578.297-1.219.438-.64.156-1.344.156-2.5 0-3.828-1.64-1.312-1.657-1.312-4.782t1.312-4.781q1.328-1.656 3.828-1.656.703 0 1.344.156.656.156 1.219.453v2.719q-.625-.578-1.219-.844-.594-.281-1.219-.281-1.344 0-2.031 1.078-.687 1.062-.687 3.156t.687 3.172q.688 1.062 2.031 1.062.625 0 1.219-.265.594-.281 1.219-.86z"/><text x="101.25" y="32.78" fill="#D9B8FF" font-family="Helvetica" font-size="17" textLength="71">resource</text><path d="M8 46.789h225" style="stroke:#000d19;stroke-width:.5"/><text x="18" y="68.784" fill="#D9B8FF" font-family="sans-serif" font-size="14" font-weight="bold" textLength="29">age</text><text x="47" y="68.784" fill="#D9B8FF" font-family="sans-serif" font-size="14" textLength="66">: duration</text><text x="18" y="95.081" fill="#D9B8FF" font-family="sans-serif" font-size="14" font-weight="bold" textLength="43">atime</text><text x="61" y="95.081" fill="#D9B8FF" font-family="sans-serif" font-size="14" textLength="70">: datetime</text><text x="18" y="121.378" fill="#D9B8FF" font-family="sans-serif" font-size="14" font-weight="bold" textLength="43">ctime</text><text x="61" y="121.378" fill="#D9B8FF" font-family="sans-serif" font-size="14" textLength="70">: datetime</text><text x="18" y="147.675" fill="#D9B8FF" font-family="sans-serif" font-size="14" font-weight="bold" textLength="14">id</text><text x="32" y="147.675" fill="#D9B8FF" font-family="sans-serif" font-size="14" textLength="48">: string</text><text x="18" y="173.972" fill="#D9B8FF" font-family="sans-serif" font-size="14" font-weight="bold" textLength="33">kind</text><text x="51" y="173.972" fill="#D9B8FF" font-family="sans-serif" font-size="14" textLength="48">: string</text><text x="18" y="200.269" fill="#D9B8FF" font-family="sans-serif" font-size="14" font-weight="bold" textLength="90">last_access</text><text x="108" y="200.269" fill="#D9B8FF" font-family="sans-serif" font-size="14" textLength="66">: duration</text><text x="18" y="226.565" fill="#D9B8FF" font-family="sans-serif" font-size="14" font-weight="bold" textLength="90">last_update</text><text x="108" y="226.565" fill="#D9B8FF" font-family="sans-serif" font-size="14" textLength="66">: duration</text><text x="18" y="252.862" fill="#D9B8FF" font-family="sans-serif" font-size="14" font-weight="bold" textLength="48">mtime</text><text x="66" y="252.862" fill="#D9B8FF" font-family="sans-serif" font-size="14" textLength="70">: datetime</text><text x="18" y="279.159" fill="#D9B8FF" font-family="sans-serif" font-size="14" font-weight="bold" textLength="43">name</text><text x="61" y="279.159" fill="#D9B8FF" font-family="sans-serif" font-size="14" textLength="48">: string</text><text x="18" y="305.456" fill="#D9B8FF" font-family="sans-serif" font-size="14" font-weight="bold" textLength="34">tags</text><text x="52" y="305.456" fill="#D9B8FF" font-family="sans-serif" font-size="14" textLength="171">: dictionary[string, string]</text><rect width="208" height="205.57" x="130.5" y="438.76" fill="#3D176E" rx="2.5" ry="2.5" style="stroke:#000d19;stroke-width:.5"/><circle cx="168" cy="458.654" r="11" fill="#ADD1B2" style="stroke:#181818;stroke-width:1"/><path d="M170.969 464.295q-.578.297-1.219.438-.64.156-1.344.156-2.5 0-3.828-1.64-1.312-1.657-1.312-4.782t1.312-4.781q1.328-1.656 3.828-1.656.703 0 1.344.156.656.156 1.219.453v2.719q-.625-.579-1.219-.844-.594-.281-1.219-.281-1.344 0-2.031 1.078-.687 1.062-.687 3.156t.687 3.172q.688 1.062 2.031 1.062.625 0 1.219-.265.594-.281 1.219-.86z"/><text x="192" y="464.54" fill="#D9B8FF" font-family="Helvetica" font-size="17" textLength="116">scarf_package</text><path d="M131.5 478.549h206" style="stroke:#000d19;stroke-width:.5"/><text x="141.5" y="500.544" fill="#D9B8FF" font-family="sans-serif" font-size="14" font-weight="bold" textLength="92">library_type</text><text x="233.5" y="500.544" fill="#D9B8FF" font-family="sans-serif" font-size="14" textLength="48">: string</text><text x="141.5" y="526.841" fill="#D9B8FF" font-family="sans-serif" font-size="14" font-weight="bold" textLength="130">long_description</text><text x="271.5" y="526.841" fill="#D9B8FF" font-family="sans-serif" font-size="14" textLength="48">: string</text><text x="141.5" y="553.138" fill="#D9B8FF" font-family="sans-serif" font-size="14" font-weight="bold" textLength="51">owner</text><text x="192.5" y="553.138" fill="#D9B8FF" font-family="sans-serif" font-size="14" textLength="48">: string</text><text x="141.5" y="579.435" fill="#D9B8FF" font-family="sans-serif" font-size="14" font-weight="bold" textLength="80">pull_count</text><text x="221.5" y="579.435" fill="#D9B8FF" font-family="sans-serif" font-size="14" textLength="44">: int64</text><text x="141.5" y="605.732" fill="#D9B8FF" font-family="sans-serif" font-size="14" font-weight="bold" textLength="138">short_description</text><text x="279.5" y="605.732" fill="#D9B8FF" font-family="sans-serif" font-size="14" textLength="48">: string</text><text x="141.5" y="632.029" fill="#D9B8FF" font-family="sans-serif" font-size="14" font-weight="bold" textLength="63">website</text><text x="204.5" y="632.029" fill="#D9B8FF" font-family="sans-serif" font-size="14" textLength="48">: string</text><rect width="161" height="39.789" x="269" y="142.49" fill="#3D176E" rx="2.5" ry="2.5" style="stroke:#000d19;stroke-width:.5"/><circle cx="284" cy="162.385" r="11" fill="#ADD1B2" style="stroke:#181818;stroke-width:1"/><path d="M286.969 168.025q-.578.297-1.219.438-.64.156-1.344.156-2.5 0-3.828-1.64-1.312-1.657-1.312-4.782t1.312-4.781q1.328-1.656 3.828-1.656.703 0 1.344.156.656.156 1.219.453v2.719q-.625-.578-1.219-.844-.594-.281-1.219-.281-1.344 0-2.031 1.078-.687 1.062-.687 3.156t.687 3.172q.688 1.062 2.031 1.062.625 0 1.219-.265.594-.281 1.219-.86z"/><text x="303" y="168.27" fill="#D9B8FF" font-family="Helvetica" font-size="17" textLength="119">scarf_resource</text><g fill="none"><path d="M172.488 335.38c12.26 40.56 19.962 66.05 31.152 103.08" style="stroke:#ffaf37;stroke-width:2"/><path d="m167.28 318.15-.535 18.966 11.487-3.472z" style="stroke:#ffaf37;stroke-width:2"/></g><g fill="none"><path d="M338.389 199.817c-14.17 46.46-45.839 150.333-72.829 238.843" style="stroke:#ffaf37;stroke-width:2"/><path d="m343.64 182.6-10.99 15.467 11.478 3.5z" style="stroke:#ffaf37;stroke-width:2"/></g></svg>
